X:1
T:[ID 10-117a]
T:[ID 10-117a]
T:Bezeichnung standardisiert: Walzer Waltzer \"Ahnlich in dieser Quelle: ID 1-113b; \"Ahnlich in anderer Quelle: 60. Schleifer - H. N. Philipp um 1800 (Anm. S. Wascher);
T:Urheber unbekannt Datum in der hier transkribierten schriftlichen Quelle: 1799
C:Urheber unbekannt
C:Datum in der hier transkribierten schriftlichen Quelle: 1799
L:1/8
M:3/8
K:D
V:1 treble 
V:1
 A/G/ | F/A/d/A/F/A/ | G/B/d/B/G/B/ | F/A/d/f/e/c/ | d/c/d/e/d | F/A/d/A/F/A/ | G/B/d/B/G/B/ | %7
 F/A/d/f/e/c/ |{c} d2 :: f/g/ | a/f/f/d/d'/b/ | b/g/g/e/e/c/ | A/c/e/c/A/c/ | d/c/d/e/d | %14
 a/f/f/d/d'/b/ | b/g/g/e/e/c/ | A/c/e/c/A/c/ |{c} d2 :| %18

